dist/svg/manage.svg

<!-- Generated by Trend Micro Style Portal -->
<svg version="1.1" xmlns="http://www.w3.org/2000/svg" width="16" height="16" viewBox="0 0 16 16">
  <title>manage</title>
  <path fill="rgb(34,34,34)" d="M1.18 2.82c-0.111-0.241-0.176-0.523-0.176-0.82 0-1.105 0.895-2 2-2s2 0.895 2 2c0 1.105-0.895 2-2 2-0.001 0-0.003 0-0.004 0h0c-0.806-0.002-1.5-0.48-1.815-1.168l-0.005-0.012zM6 5c0-0.552-0.448-1-1-1v0 0l-2 2-2-2c-0.552 0-1 0.448-1 1v0 4c0 0.552 0.448 1 1 1v0 5c0 0.552 0.448 1 1 1v0h2c0.552 0 1-0.448 1-1v0-5c0.552 0 1-0.448 1-1v0zM8 10c-0.368-0.001-0.713-0.101-1.009-0.275l0.009 0.005v1.1c0.301 0.111 0.648 0.175 1.010 0.175 1.657 0 3-1.343 3-3s-1.343-3-3-3c-0.362 0-0.709 0.064-1.030 0.182l0.021-0.007v1.1c0.292-0.176 0.644-0.28 1.020-0.28 1.105 0 2 0.895 2 2s-0.895 2-2 2c-0.007 0-0.014-0-0.021-0l0.001 0zM15.7 6.48l-1.91-0.28c-0.125-0.386-0.271-0.716-0.445-1.029l0.015 0.029 1.090-1.43c0.050-0.065 0.080-0.147 0.080-0.237 0-0.001 0-0.002-0-0.004v0c0-0.006 0.001-0.013 0.001-0.019 0-0.079-0.027-0.153-0.071-0.212l0.001 0.001c-0.527-0.651-1.090-1.231-1.702-1.755l-0.018-0.015c-0.069-0.060-0.16-0.098-0.26-0.1h-0c-0.005-0-0.010-0-0.015-0-0.090 0-0.173 0.034-0.235 0.091l0-0-1.47 1.090c-0.263-0.14-0.574-0.272-0.897-0.378l-0.043-0.012-0.29-1.91c-0.030-0.177-0.182-0.31-0.365-0.31-0.002 0-0.003 0-0.005 0h-2.32c-0.003-0-0.007-0-0.011-0-0.178 0-0.327 0.122-0.369 0.288l-0.001 0.003-0.3 1.94-0.16 0.060v1.070l0.47-0.18 0.62-0.18 0.25-2h1.29l0.3 2 0.59 0.19c0.308 0.096 0.569 0.205 0.819 0.333l-0.029-0.013 0.56 0.29 1.59-1.2c0.31 0.29 0.66 0.61 0.93 0.92l-1.2 1.58 0.29 0.55c0.131 0.238 0.25 0.516 0.341 0.807l0.009 0.033 0.18 0.6 2 0.3v1.26l-2 0.3-0.2 0.57c-0.101 0.306-0.217 0.567-0.353 0.815l0.013-0.025-0.3 0.54s0.9 1.26 1.2 1.63c-0.27 0.3-0.65 0.69-0.94 0.95l-1.58-1.23-0.57 0.3c-0.221 0.118-0.482 0.229-0.753 0.319l-0.037 0.011-0.61 0.2s-0.18 1.62-0.25 2h-1.25l-0.3-2-0.59-0.19-0.49-0.2v1.070l0.18 0.060 0.29 1.92c0.030 0.177 0.182 0.31 0.365 0.31 0.005 0 0.010-0 0.016-0l-0.001 0h2.31c0.003 0 0.007 0 0.011 0 0.178 0 0.327-0.122 0.369-0.288l0.001-0.003 0.3-1.94s0.65-0.24 0.95-0.4l1.44 1.13c0.076 0.052 0.169 0.085 0.269 0.090l0.001 0c0.35 0 1.76-1.53 2-1.86 0.056-0.062 0.090-0.144 0.090-0.234 0-0.002-0-0.004-0-0.006v0c-0.002-0.1-0.040-0.191-0.1-0.261l0 0.001c-0.39-0.47-0.76-0.93-1.11-1.44 0.148-0.268 0.287-0.582 0.398-0.909l0.012-0.041 1.93-0.29c0.16-0.051 0.275-0.197 0.28-0.369l0-0.001v-2.31c0-0.003 0-0.006 0-0.008 0-0.182-0.127-0.333-0.298-0.371l-0.003-0z"></path>
</svg>

<svg width="16" height="16" viewBox="0 0 16 16" fill="rgb(34, 34, 34)" xmlns="http://www.w3.org/2000/svg"><title>manage</title><path d="M1.18 2.82C1.069 2.579 1.004 2.297 1.004 2C1.004 0.895 1.899 0 3.004 0C4.109 0 5.004 0.895 5.004 2C5.004 3.105 4.109 4 3.004 4C3.003 4 3.001 4 3 4C2.194 3.998 1.5 3.52 1.185 2.832L1.18 2.82ZM6 5C6 4.448 5.552 4 5 4L3 6L1 4C0.448 4 0 4.448 0 5V9C0 9.552 0.448 10 1 10V15C1 15.552 1.448 16 2 16H4C4.552 16 5 15.552 5 15V10C5.552 10 6 9.552 6 9V5ZM8 10C7.632 9.999 7.287 9.899 6.991 9.725L7 9.73V10.83C7.301 10.941 7.648 11.005 8.01 11.005C9.667 11.005 11.01 9.662 11.01 8.005C11.01 6.348 9.667 5.005 8.01 5.005C7.648 5.005 7.301 5.069 6.98 5.187L7.001 5.18V6.28C7.293 6.104 7.645 6 8.021 6C9.126 6 10.021 6.895 10.021 8C10.021 9.105 9.126 10 8.021 10C8.014 10 8.007 10 8 10ZM15.7 6.48L13.79 6.2C13.665 5.814 13.519 5.484 13.345 5.171L13.36 5.2L14.45 3.77C14.5 3.705 14.53 3.623 14.53 3.533C14.53 3.532 14.53 3.531 14.53 3.529C14.53 3.523 14.531 3.516 14.531 3.51C14.531 3.431 14.504 3.357 14.46 3.298L14.461 3.299C13.934 2.648 13.371 2.068 12.759 1.544L12.741 1.529C12.672 1.469 12.581 1.431 12.481 1.429C12.476 1.429 12.471 1.429 12.466 1.429C12.376 1.429 12.293 1.463 12.231 1.52L10.761 2.61C10.498 2.47 10.187 2.338 9.864 2.232L9.821 2.22L9.531 0.31C9.501 0.133 9.349 0 9.166 0C9.164 0 9.163 0 9.161 0H6.841C6.838 0 6.834 0 6.83 0C6.652 0 6.503 0.122 6.461 0.288L6.46 0.291L6.16 2.231L6 2.291V3.361L6.47 3.181L7.09 3.001L7.34 1.001H8.63L8.93 3.001L9.52 3.191C9.828 3.287 10.089 3.396 10.339 3.524L10.31 3.511L10.87 3.801L12.46 2.601C12.77 2.891 13.12 3.211 13.39 3.521L12.19 5.101L12.48 5.651C12.611 5.889 12.73 6.167 12.821 6.458L12.83 6.491L13.01 7.091L15.01 7.391V8.651L13.01 8.951L12.81 9.521C12.709 9.827 12.593 10.088 12.457 10.336L12.47 10.311L12.17 10.851C12.17 10.851 13.07 12.111 13.37 12.481C13.1 12.781 12.72 13.171 12.43 13.431L10.85 12.201L10.28 12.501C10.059 12.619 9.798 12.73 9.527 12.82L9.49 12.831L8.88 13.031C8.88 13.031 8.7 14.651 8.63 15.031H7.38L7.08 13.031L6.49 12.841L6 12.641V13.711L6.18 13.771L6.47 15.691C6.5 15.868 6.652 16.001 6.835 16.001C6.84 16.001 6.845 16.001 6.851 16.001H9.16C9.163 16.001 9.167 16.001 9.171 16.001C9.349 16.001 9.498 15.879 9.54 15.713L9.541 15.71L9.841 13.77C9.841 13.77 10.491 13.53 10.791 13.37L12.231 14.5C12.307 14.552 12.4 14.585 12.5 14.59H12.501C12.851 14.59 14.261 13.06 14.501 12.73C14.557 12.668 14.591 12.586 14.591 12.496C14.591 12.494 14.591 12.492 14.591 12.49C14.589 12.39 14.551 12.299 14.491 12.229C14.101 11.759 13.731 11.3 13.381 10.79C13.529 10.522 13.668 10.208 13.779 9.881L13.791 9.84L15.721 9.55C15.881 9.499 15.996 9.353 16.001 9.181V6.87C16.001 6.867 16.001 6.864 16.001 6.862C16.001 6.68 15.874 6.529 15.703 6.491H15.7V6.48Z" fill="rgb(34, 34, 34)" fill-opacity="1.00"/></svg>
